X: 13
T: The Merry Maid
C: Armand Aromin
H: 10/28/04
M: 4/4
L:1/8
R: Reel
K: Gmaj
G2 BG DGBG | G2 BG AcBA | G2 BG DGBG | GFGA BcBA :|
G2 dG cGBG | GFGA BcBA | G2 dG cGBG | (3GGG AG AcBA :|
